X:1
T:James Gibb editions
T:Psalm 119, pt 4 (Becker) - Schütz
%%score [ ( 1 2 ) ( 3 4 ) ]
L:1/8
Q:1/4=98
M:3/4
K:G
V:1 treble nm="Soprano Alto"
V:2 treble 
V:3 bass nm="Tenor Bass"
V:4 bass 
V:1
"^Cornelius Becker\n(1561-1604)""^Psalm 119, part 4, SWV 220""^Heinrich Schütz\n(1585-1672)" E2 | %1
w: ~~Du|
w: dein|
 B4 c2 | d4 c2 | B6 | G4 A2 | B4 A2 | G2 F4 | E6- | E4 :| B2 | c4 d2 | B4 c2 | A4 B2 | ^G4 G2 | %14
w: tust viel|Guts be-|wei-|sen dei-|nem ge-|treu- en|Knecht,||Den|wah- ren|Glau- ben,|christ- lich|Lieb dei-|
w: Wort gibt|Maß und|Wei-|se, es|lehrt uns|all- zeit|recht.|||||||
 A4 B2 | c4 c2 | d6 | G6- | G4 c2 | B4 c2 | (A4 B2 | ^G4 A2- | A2) ^G4 | A6- | A4 |] %25
w: ne Ge-|bot uns|zei-|gen,|* dein|ich mich|tag\- *||* lich|üb.||
w: |||||||||||
V:2
 E2 | G4 A2 | B4 A2 | F6 | E4 F2 | G4 F2 | E2 ^D4 | E6- | E4 :| G2 | A4 A2 | G4 G2 | =F4 F2 | %13
 E4 E2 | E4 G2 | A4 G2 | =F6 | E6- | E4 G2 | G4 G2 | (=F6 | E6 | =F2) E4 | E6- | E4 |] %25
V:3
 B,2 | E4 E2 | G4 E2 | ^D6 | B,4 D2 | D4 D2 | B,2 B,4 | B,6- | B,4 :| E2 | E4 D2 | D4 E2 | C4 D2 | %13
 B,4 B,2 | C4 D2 | =F4 C2 | %16
"^34. Eh mich der Unfall rühret, ging ich weit in der Irr,\ndurch Kreuz dein Wort mich führet, daß ich wandle vor dir;\ndu bist gütig und freundlich sehr, deine Gebot und Rechte\nmich allzeit treulich lehr.\n\n38. Recht sind all dein Gerichte, daß weiß ich, Herr, fürwahr,\nwenn mich die Trübsal züchtigt, so lern ich immerdar.\nDein Gnade kömmt mir wohl zu Trost, die du in rechter Treue\ndein'm Knecht versprochen hast.\n\n41. Mein Seel trägt groß Verlangen, Herr Gott, nach deinem Heil,\nHoffnung hat mich umfangen, dein Wort kommt mir zuteil,\nmein Augen schmerzlich sehnen sich nach deinem Wort, ich spreche:\nWann wirst du trösten mich?" (C4 B,2) | %17
 C6- | C4 E2 | D4 E2 | (C4 D2 | B,4 C2 | B,2) B,4 | ^C6- | C4 |] %25
V:4
 E,2 | E,4 A,2 | G,4 A,2 | B,6 | E,4 D,2 | G,4 D,2 | E,2 B,,4 | E,6- | E,4 :| E,2 | A,4 F,2 | %11
 G,4 E,2 | =F,4 D,2 | E,4 E,2 | A,4 G,2 | =F,4 E,2 | D,6 | C,6- | C,4 C,2 | G,4 E,2 | %20
 (=F,3 E, D,2 | E,3 D, C,2 | D,2) E,4 | A,,6- | A,,4 |] %25

